X:1
T:Title
%%score { 1 | 2 }
L:1/8
M:6/8
K:Db
V:1 treble nm="Grand Piano"
V:2 bass 
V:1
 z3 z2[Q:1/4=90] [FA] | [Fd]>[Fd][Fd] [Fd][Fc][FB] | [FA]3 [DF]2 [DF] | %3
 [CE]>[CF][CG] [CB][CA][CG] |[M:5/8] [DF]-[DF]- [DF]3 |[M:1/8] [FA] | %6
[M:3/4] [Fd]>[Fd] [Fd][Fd] [Fc][FB] | [FA]3 [DF]2 [DF] | [CE][CF] [CG][CG] [CF][CE] | [F,D]6 | %10
 [DFA]3 [A,DF] [A,EG][A,FA] | [DFA]3 [A,DF] [A,EG][A,FA] | [DFA][DGB] [DFA][DFA] [A,EG][A,DF] | %13
 [A,CE]6 | [A,FA]3 [A,DF] [A,EG][A,FA] | [DFA]3 [A,DF] [A,EG][A,FA] | [FA][GB] [FA][EG] [DF][CE] | %17
[M:5/8] D-D- D3 |] %18
V:2
 z3 z2 [D,D] | [D,A,]>[D,A,][D,A,] [D,A,][D,A,][D,A,] | [D,D]3 [D,A,]2 [D,A,] | %3
 [A,,A,]>[A,,A,][A,,A,] [A,,A,][A,,A,][A,,A,] |[M:5/8] [D,A,]-[D,A,]- [D,A,]3 |[M:1/8] [D,D] | %6
[M:3/4] [D,A,]>[D,A,] [D,A,][D,A,] [D,A,][D,A,] | [D,D]3 [D,A,]2 [D,A,] | %8
 [A,,A,][A,,A,] [A,,A,][A,,A,] [A,,A,][A,,A,] | D,6 | D,3 D, D,D, | D,3 D, D,D, | D,D, D,D, D,D, | %13
 A,,6 | D,3 D, D,D, | D,3 D, D,D, | [A,,A,][A,,A,] [A,,A,][A,,A,] [A,,A,][A,,G,] | %17
[M:5/8] [D,F,]-[D,F,]- [D,F,]3 |] %18

